X:1
T:Title
%%score [ ( 1 2 ) ( 3 4 ) ]
L:1/8
Q:1/4=100
M:4/4
K:D
V:1 treble nm="Midi_74"
V:2 treble 
V:3 bass nm="Midi_69"
V:4 bass 
V:1
"^John Bacchus Dykes\n(1823-76)""^Bernhardt Severin Ingemann (1789-1862)\ntrans. Sabine Baring-Gould (1834-1924)""^Through the night of doubt and sorrow""^St Oswald (87. 87)" A3 F B2 d2 | %1
 c2 B2 A2 F2 | D2 D2 E2 F2 | A2 B2 A4 || A3 F B2 d2 | c2 B2 A2 A2 | A2 d2 d2 F2 | A2 E2 D4 |] %8
V:2
 F3 F D2 D2 | G2 F2 E2 D2 | D2 B,2 C2 D2 | E2 (ED) C4 || D3 D F2 F2 | ^E2 C2 C2 =E2 | A2 F2 F2 D2 | %7
w: ~~~~~Through the night of|doubt and sor- row|* * * the|pil- grim * band,||||
w: ~Clear be- fore us|through the dark- ness,|* * * the|guid- ing * light;||||
w: ~~One the light of|God's own pre- sence,|O'er * * ran-|somed peo- ple *||||
w: ~One the ob- ject|of our jour- ney,|One * faith which|ne- ver * tires,||||
w: One the strain that|lips of thou- sands|Lift * from the|heart of * one;||||
w: One the glad- ness|of re- joic- ing|On * far e-|ter- nal * shore,||||
 D2 C2 D4 |] %8
w: |
w: |
w: |
w: |
w: |
w: |
V:3
 D3 C B,2 A,2 | G,2 B,2 E,2 A,2 | B,2 (B,A,) G,2 A,2 | A,2 ^G,2 A,4 || F,3 A, D2 B,2 | %5
w: ||On- ward * goes *||Sing- ing songs of|
w: ||Gleams and * burns *||Bro- ther clasps the|
w: ||* His * * *||Chas- ing far the|
w: ||* the * * *||One the ear- nest|
w: ||* as * * *||One the con- flict,|
w: ||* the * * *||Where the one Al-|
 ^G,2 G,2 A,2 C2 | D2 A,2 B,2 A,2 | A,2 (A,G,) F,4 |] %8
w: ex- pec- ta- tion,|March- ing to the|pro- mised * land.|
w: hand of bro- ther,|Step- ping fear- less|through the * night.|
w: gloom and ter- ror,|Brighten- ing all the|path we * tread.|
w: look- ing for- ward,|One the hope our|God in\- * spires;|
w: one the per- il,|One the march in|God be\- * gun;|
w: migh- ty Fa- ther|Reigns in love for|ev- er\- * more.|
V:4
 D,3 D, G,2 F,2 | E,2 D,2 C,2 D,2 | B,,2 (G,F,) E,2 D,2 | C,2 E,2 A,,4 || D,3 D, B,,2 B,,2 | %5
 C,2 ^E,2 F,2 =G,2 | F,2 D,2 B,,2 D,2 | F,,2 A,,2 D,4 |] %8

